X:527
T:Valse Beaulieu
M:3/4
L:1/8
K:G
Bd||"G"G3 A Bd|G3 B AF|"C"E2 ED EF|"D"ED D2 BA|
"G"G3 A Bd| G3 B AF|"C"E2 ED GF|[1"G"G4 Bd:|[2"G"G3 A Bd|
"G"g3 f ed|"Em"B2 BA Bd|"C"E2 ED EF|"D"ED D2 Bd|
"G"g3 f ed|"Em"B2 BA BA|"C"E2 ED GF|[1"G"G3 A Bd:|[2"G"G6||

